X:1
T:The Lord is my Shepherd - Greene
T:Greene - The Lord is my Shepherd
T:James Gibb editions
T:#
T:#
%%score [ 1 2 3 ] { ( 4 5 ) | 6 }
L:1/8
Q:1/4=108
M:4/4
K:F
V:1 treble nm="Alto" snm="A"
V:2 treble-8 nm="Tenor" snm="T"
V:3 bass nm="Bass" snm="B"
V:4 treble nm="Accomp"
V:5 treble 
V:6 bass 
V:1
"^The Lord is my Shepherd""^Psalm 23 vv 1-3""^Arranged for ATB by James Gibb" z2 | z8 | z8 | z8 | %4
w: ||||
 z8 | z8 | z8 |"^Maurice Greene\n(1695-1755)" z8 | z8 | z8 | z4 G2 G2 | G2 (^FG) (AB) c2 | %12
w: ||||||he shall|feed me * in * green|
 c2 B2 z4 | z8 | z8 | z8 | z4 z2 F2 | c4 (BA) (GF) | (3(Bcd) c2 F4- | F2 GA B2 A2 | A2 G2 z4 | %21
w: pas- tures,||||The|Lord is * my *|shep\- * * herd, there\-|* fore can I want|noth- ing,|
 z4 A2 A2 | A2 (GA) B2 B2 | B2 (AG) (Ac) (BA) | A2 G2 z4 | z8 | z2 G2 c2 _B2 | A4 c2 A2 | %28
w: he shall|feed me * in green|pas- tures, * in * green *|pas- tures,||and lead me|forth, lead me|
 B2 (dc) B2 A2 | A2 G2 z4 | z4 z2 D2 | (E2 D2) E2 ^F2 | G2 D2 G4- | G2 C2 F4- | F4 E4 | z4 d4- | %36
w: forth be\- * side the|wa- ters,|the|wa\- * ters of|com- fort, He|* shall lead|* me,|he|
 d4 (c2 d2) | (c4{=Bc} !courtesy!=B3 A | A2) =B2 c4- | c2 ^F2 G2 A2 | D2 D2 G2 F2 | E4 F2 G2 | %42
w: * shall *|lead * *|me, shall lead|* me, lead me|forth be- side the|wa- ters of|
 A4 F4 | z2 D2 E2 F2 | (G2 F2) E2 F2 | (E4{DE} D3 C | C4) z4 | z8 | z8 | z8 | z8 | G2 GF G2 A2 | %52
w: com- fort,|be- side the|wa\- * ters of|com\- * *|fort.|||||He shall con- vert my|
 B4 z2 B2 | (B2 A2) z2 A2 | A2 (Bc) B2 A2 | (A2 G2) z2 G2 | ^F2 (GA) (G2 F>)G | G4 z4 | %58
w: soul, my|soul * and|bring me * in the|paths, * the|paths of * right\- * eous-|ness,|
 D2 D^C D2 E2 | F6 F2 | (F2 E2) z2 E2 | F2 (GA) G2 F2 | (F2 E2) z2 A2 | E2 (FG) (F2{EF} E>)E | %64
w: he shall con- vert my|soul, my|soul, * and|bring me * in the|paths, * the|paths of * right\- * eous-|
 F4 z4 | z2 B2 A2 G2 | (^F2 ^G2) A4- | A2 =B2 (A2 ^G/A/G) | A4 z4 | z8 | z4 F4- | F2 GA B2 A2 | %72
w: ness|for his name's|sake, * for|* his name's * * *|sake.||there\-|* fore can I want|
 A2 G2 z4 | z8 | z4 d4- | d2 (cB) A2 G2 | ^F4 (G3 A) | (G4{^FG} F3) G | G4 z2 G2 | c4 (BA) (GF) | %80
w: noth- ing,||there\-|* fore * can I|noth- ing, *|noth\- * ing|want, the|Lord is * my *|
 d2 c2 c4- | c2 (BA) G2 F2 | E4 (F3 G) | (F4 E2) E2 | F4 G4- | %85
w: shep- herd, there\-|* fore * can I|noth- ing, *|noth\- * ing|want, there\-|
 G2[Q:1/4=106] E2[Q:1/4=104] F2[Q:1/4=101] G2 | %86
w: * fore can I|
[Q:1/4=98] (F4[Q:1/4=10][Q:1/4=10][Q:1/4=94]{EF} E3)[Q:1/4=92] F |[Q:1/4=92] F8 |] %88
w: noth\- * ing|want.|
V:2
 z2 | z8 | z8 | z8 | z8 | z8 | z4 z2 F2 | c4 (BA) (GF) | (3(Bcd) c2 F4- | F2 GA B2 A2 | A2 G2 z4 | %11
w: ||||||The|Lord is * my *|shep\- * * herd, there\-|* fore can I want|noth- ing,|
 z8 | z2 D2 G2 F2 | E2 G2 c2 B2 | (A2 G2) A2 =B2 | c2 G2 z2 G2 | (A2 BA) G2 F2 | (ED) C2 z4 | z8 | %19
w: |and lead me|forth be- side the|wa\- * ters of|com- fort, the|wa\- * * ters of|com\- * fort,||
 z8 | z4 G2 G2 | G2 (^FG) (AB) c2 | c2 B2 G2 G2 | G2 (FE) (FA) (GF) | F2 E2 c2 c2 | %25
w: |he shall|feed me * in * green|pas- tures, he shall|feed me * in * green *|pas- tures, he shall|
 c2 (=Bc) d2 d2 | d2 c2 z4 | z2 C2 F2 _E2 | D2 (BA) G2 F2 | F2 E2 z2 G2 | (A2 G2) A2 =B2 | %31
w: feed me * in green|pas- tures,|and lead me|forth be\- * side the|wa- ters, the|wa\- * ters of|
 c2 G2 z2 c2 | (=BA) G2 z4 | A6 d2 | =B2 G2 c2 _B2 | A2 c2 =B2 A2 | ^G4 A2 =B2 | %37
w: com- fort, of|com\- * fort,|he shall|lead me, lead me|forth be- side the|wa- ters of|
 (A4{^GA} !courtesy!^G3 A | A4) z4 | d6 d2 | B2 G2 z4 | c6 c2 | A2 F2 d2 c2 | =B2 B2 c2 d2 | %44
w: com\- * *|fort,|he shall|lead me,|he shall|lead me, lead me|forth be- side the|
 (e2 =B2) c2 d2 | (c4{=Bc} B3 c | c4) z4 | z8 | z8 | z8 | c2 c=B c2 d2 | _e6 e2 | (_e2 d2) z2 d2 | %53
w: wa\- * ters of|com\- * *|fort.||||He shall con- vert my|soul, con-|vert * my|
 (d2 c2) z2 c2 | c2 (d_e) d2 c2 | (c2 B2) z2 d2 | A2 (Bc) (B2 A>)G | G4 z4 | z8 | A2 AG A2 =B2 | %60
w: soul * and|bring me * in the|paths, * the|paths of * right\- * eous-|ness,||he shall con- vert my|
 c2 G2 c2 B2 | A2 (Bc) B2 A2 | (A2 G2) z2 c2 | G2 (AB) (A2{GA} G>)G | F4 d4- | d2 e2 (d2 ^c2) | %66
w: soul and bring me,|bring me * in the|paths, * the|paths of * right\- * eous-|ness for|* his name's *|
 (d2 =B2) c4- | c2 d2 (c2 =B/c/B) | A4 z2 F2 | c4 (BA) (GF) | (3(Bcd) c2 z4 | z8 | z4 G4- | %73
w: sake, * for|* his name's * * *|sake. The|Lord is * my *|shep\- * * herd,||there\-|
 G2 AB c2 B2 | B2 A2 z4 | _e6 e2 | A4 (B3 c) | (B4{AB} A3) G | G2 G2 c4 | (BA) (GF) (d2 c2 | %80
w: * fore can I want|noth- ing,|there- fore|can I *|noth\- * ing|want, the Lord|is * my * shep\- *|
 B2) A2 z4 | d6 d2 | G4 (A3 B) | (A4 G2) A2 | B4 B4- | B2 G2 A2 B2 | (A4{GA} G3) F | F8 |] %88
w: * herd,|there- fore|can I *|noth\- * ing|want, there\-|* fore can I|noth\- * ing|want.|
V:3
 z2 | z8 | z8 | z8 | z8 | z8 | z8 | z8 | z8 | z8 | z8 | z8 | z2 (G,,A,,) B,,2 G,,2 | %13
w: ||||||||||||and * lead me|
 C,3 D, E,2 C,2 | (F,2 E,2) D,2 G,,2 | C,2 C,2 z4 | z8 | z8 | z4 A,2 F,2 | B,2 A,2 (G,2 F,2) | %20
w: forth be- side the|wa\- * ters of|com- fort,|||there- fore|can I want *|
 C2 C,2 z4 | z8 | z4 E,2 C,2 | F,4 F,,4 | z2 C,D, E,2 C,2 | z2 (G,,A,,) =B,,2 G,,2 | C,2 z2 z4 | %27
w: noth- ing,||he shall|feed me|in green past- ures,|and * lead me|forth,|
 z2 (F,,G,,) A,,2 F,,2 | B,,4 z4 | z2 (C,D,) E,2 C,2 | (F,2 E,2) D,2 G,,2 | (C,2 =B,,2) A,,2 D,2 | %32
w: and * lead me|forth|be\- * side the|wa\- * ters, the|wa\- * ters of|
 G,,2 G,,2 z4 | z8 | G,2 G,2 A,2 E,2 | F,2 E,2 F,2 D,2 | E,4 F,2 D,2 | (E,2 D,2 E,4) | A,6 G,2 | %39
w: com- fort,||he shall lead me|forth be- side the|wa- ters of|com\- * *|fort, and|
 (^F,2 D,2) (E,2 F,2) | G,2 (G,A,) B,2 G,2 | (C2 C,2) D,2 E,2 | F,4 F,4 | z2 F,2 E,2 D,2 | %44
w: lead * me *|forth be\- * side the|wa\- * ters of|com- fort,|be- side the|
 (C,2 G,2) A,2 F,2 | (G,2 F,2 G,4) | C,4 z4 | z8 | z8 | z8 | z8 | z8 | B,,2 B,,C, D,2 B,,2 | %53
w: wa\- * ters of|com\- * *|fort.||||||He shall con- vert my|
 F,4 z4 | z4 z2 D,2 | G,,2 (G,,A,,) B,,2 (B,,C,) | D,2 G,2 D,2 D,2 | G,,2 G,,^F,, G,,2 A,,2 | %58
w: soul|and|bring me * in the *|paths of right- eous-|ness, shall con- vert my|
 B,,4 z4 | z8 | z8 | z4 z2 F,2 | C,3 B,, A,,2 F,,2 | C,2 F,2 C,2 C,2 | F,6 D,2 | G,4 A,4 | %66
w: soul|||and|bring me in the|paths of right- eous-|ness for|his name's|
 D,4 z2 A,,2 | D,4 E,4 | A,,4 z4 | z4 z2 A,,2 | (B,,2 A,,G,,) A,,2 F,,2 | (B,,2 A,,2) (G,,2 F,,2) | %72
w: sake, for|his name's|sake,|the|Lord * * is my|shep\- * herd, *|
 z4 z2 G,,2 | (C,2 B,,2) A,,2 G,,2 | D,4 D,2 z2 | C,2 D,2 _E,2 C,2 | D,2 C,2 B,,2 G,,2 | %77
w: the|Lord * is my|shep- herd,|there- fore can I|noth- ing want, I|
 (D,2 C,2) D,4 | G,,4 z4 | z8 | z2 (F,,G,,) A,,2 F,,2 | B,,2 C,2 D,2 B,,2 | (C,2 B,,2 A,,2) F,,2 | %83
w: noth\- * ing|want,||my * shep- herd,|there- fore can I|noth\- * * ing,|
 (C,2 B,,2) C,4 | D,4 G,4 | C,4 F,2 B,,2 | C,4 C,4 | F,,8 |] %88
w: noth\- * ing|want, there-|fore can I|noth- ing|want.|
V:4
 F2 | c4 BAGF | (3Bcd c2 x4 | d6 [Bd]2 | [EG]4 [FA]3 [GB] | [FA]4{GA} G3 F | [A,CF]6 z2 | %7
 z2 E2 F2 c2 | d2 cB c2 A2 | d2 c2 e2 f2 | [Af]2 [Ge]2 z GAB | [GB]2 [^FA]2 z DEF | %12
 [A,C^F]2 [B,DG]2 z2 [=Fd]2 | d2 c2 z CDE | F2 G2 F4 | [G,CE]4 c4- | c4 x4 | %17
 c2 !courtesy!_BA GFEF | F6 C2 | [F,D]2 [F,C]2 [B,E]2 [A,CF]2 | [A,F]2 [G,E]2 z GAB | %21
 [GB]2 [^FA]2 cB [CFA]2 | [C^FA]2 [B,G]2 BA [B,EG]2 | [B,EG]2 [A,F]2 [CA]2 [B,G][A,F] | %24
 [A,F]2 [G,E]2 x4 | d6 =B2 | [DF=B]2 [EGc]2 z2 [B,EG]2 | [A,CF]4 FG A2 | [DFB]4 z GAB | c4 GF E2 | %30
 [A,CF]2 [G,C]2 F4 | [CE]2 [DG]2 c4 | [DG=B]4 c4 | A8 | G3 F EF G2 | A4 =B2 A2 | %36
 ^GE^FG A2 [=F=B]2 | [EA]4{^GA} G3 A | A4 z2 A!courtesy!_B | [DAc]4 x4 | [DGB]4 z2 GA | [EGB]4 x4 | %42
 [CFA]4 x4 | d2 ef x4 | x4 x4 | G7 F | [G,CE]4 c3 B | [CFA]6 fe | dGA=B c4- | c2 [Ad]2 G2 =B2 | %50
 [EGc]2 EF G2 F2 | [C_E]8 | _E2 DE F2 D2 | [B,D]2 [A,C]2 z2 [CA]2 | A4 z2 [C^F]2 | %55
 [C^F]2 [B,DG]2 z2 G,2 | [^F,A,]2 [G,B,]4 [F,A,D]2 | [G,B,]3 A, B,2 [F,C]2 | [F,B,D]4 B4 | %59
 [CFA]6 [=B,F]2 | F2 E2 z2 [CEG]2 | [CFA]4 [B,G]2 [A,F]2 | [A,F]2 [G,E]2 FGAB | c8 | [CFA]4 [DA]4 | %65
 B4 A4 | [A,D^F]4 z2 E2- | E2 [=B,D]2 [A,C]2 [^G,B,]2 | A,4 c2 !courtesy!_BA | [CG]4 z2 [F,C]2 | %70
 D2 CB, C2 [A,CF]2 | D2 C2 [B,E]2 [A,CF]2 | [A,F]2 [G,E]2 z2 [B,D]2 | _E2 D2 [C^F]2 [B,DG]2 | %74
 [B,G]2 [A,^F]2 G2 [Bd]2 | [Bd]4 [Ac]2 [GB]2 | [^FA]4 G4 | [B,G]4 [A,^F]4 | [B,DG]3 B, CD E2 | %79
 z FBA [GB][FA][EG][FA] | z GAB c2 f2- | f8 | [Ge]4 f4 | c4 G2 A2 | [B,FB]4 [GB]4- | %85
 [GB]4 [CFA]2 [B,G]2 | [A,CF]4 E3 F | [A,CF]8 |] %88
V:5
 x2 | z2 E2 F2 C2 | [DF]2 cB [cf]2 [Ac]2 | c2 BA BAGF | x4 C4 | C8 | x8 | z2 CB, [A,C]2 F2 | %8
 F6 [CF]2 | F2 F2 B2 [Ac]2 | c4 x4 | D4 x4 | x8 | [EG]4 x4 | [A,C]2 C4 =B,2 | x4 G4 | %16
 A4 [Gd]2 [F=B]2 | [EG]4 x2 C2 | D2 CB, C2 A,2 | x8 | C4 x4 | D4 x4 | x8 | x8 | C4 c4- | %25
 c2 =BA G2 [DF]2 | x8 | x4 C2 _E2 | x4 x2 F2 | [FA]2 [EG]2 C4 | x4 A,2 [=B,D]2 | x4 E2 [^FA]2 | %32
 x4 [CG]4- | [CG]4 [DF]4 | [=B,D]4 C4- | C4 D2 C2 | =B,4 z2 D2 | C4 [=B,E]4 | [CE]4 z2 C2 | %39
 x4 dcBA | x4 z2 F2 | x4 cBAG | x4 z2 [Acf]2 | =B4 [cg]2 [Bf]2 | [Gce]2 [F=Bd]2 [Ec]2 [FA]2 | %45
 [CE]4 [=B,D]4 | x4 G2 FE | x6 [Fc]2 | G6 FE | F4 E2 D2 | x8 | G,6 A,2 | B,6 B,2 | x4 x4 | %54
 [C_E]2 D2 x4 | x8 | x8 | x8 | x4 D2 E2 | x8 | [G,C]4 x4 | x4 C4 | C4 x4 | [EG]2 [FA]4 [EG]2 | %64
 x4 D2 F2- | [DF]2 [EG]2 [DF]2 [^CE]2 | x8 | x8 | x8 | x8 | F,6 x2 | x8 | C4 x4 | x8 | D4 D4 | %75
 _E6 E2 | A,4 D3 C | D8 | x8 | x8 | z4 z2 [Ac]2 | d3 c Bc d2 | c4- cBAB | [FA]4 E4 | x4 D4 | %85
 E4 x4 | x4 G,4 | x8 |] %88
V:6
 z2 | z2 C,2 F,2 A,,2 | B,,2 A,,G,, A,,2 F,,2 | B,,2 C,2 D,2 B,,2 | C,2 B,,2 A,,2 G,,2 | C,4 C,,4 | %6
 F,,2 C,2 F,2 z2 | z2 C,2 F,2 A,,2 | B,,2 A,,G,, A,,2 F,,2 | B,,2 A,,2 G,,2 F,,2 | %10
 C,,2 C,2 B,,2 G,,2 | D,,2 D,E, ^F,2 D,2 | G,2 G,,A,, B,,2 G,,2 | C,,2 C,D, E,2 C,2 | %14
 F,2 E,2 D,2 G,,2 | C,2 C,D, E,2 C,2 | F,2 F,,2 B,,2 D,2 | C,2 E,,2 F,,2 A,,2 | %18
 B,,2 A,,G,, A,,2 F,,2 | B,,2 A,,2 G,,2 F,,2 | C,2 C,,2 B,,2 G,,2 | D,,2 D,E, ^F,2 D,2 | %22
 G,,2 C,2 E,2 C,2 | F,4 F,,4 | C,,2 C,D, E,2 C,2 | G,2 G,,A,, =B,,2 G,,2 | C,2 C,D, E,2 C,2 | %27
 F,2 F,G, A,2 F,2 | B,,4 z2 F,2 | C,2 C,D, E,2 C,2 | F,2 E,2 D,2 G,,2 | C,2 =B,,2 A,,2 D,2 | %32
 G,2 G,F, E,2 C,2 | F,2 E,2 D,2 D,2 | G,,2 G,,2 A,,2 E,,2 | F,,2 E,,2 F,,2 D,,2 | %36
 E,,2 E,2 F,2 D,2 | E,2 D,2 E,2 E,,2 | A,,6 G,,2 | ^F,,2 D,,2 E,,2 F,,2 | G,,2 G,,A,, B,,2 G,,2 | %41
 C,2 C,,2 D,,2 E,,2 | F,,4 z2 D,,2 | G,,2 F,,2 E,,2 D,,2 | C,,2 G,,2 A,,2 F,,2 | G,,8 | %46
 C,,2 C,D, E,2 C,2 | F,2 A,G, F,2 A,,2 | =B,,2 G,2 E,2 C,2 | A,,2 F,,2 G,,2 G,,2 | %50
 C,2 C,D, _E,2 D,2 | C,8 | B,,2 B,,C, D,2 B,,2 | F,,2 F,,G,, A,,2 F,,2 | ^F,,4 z2 D,,2 | %55
 G,,2 G,,A,, B,,2 B,,C, | D,2 G,,2 D,2 D,,2 | G,,2 G,,^F,, G,,2 A,,2 | B,,4 G,,4 | F,,4 D,,4 | %60
 C,,2 C,,D,, E,,2 C,,2 | F,,4 E,,2 F,,2 | C,,2 C,B,, A,,2 F,,2 | C,2 F,,2 C,2 C,,2 | %64
 F,,2 F,,E,, F,,2 D,,2 | G,,4 A,,4 | D,,4 z2 A,,2 | D,,4 E,,4 | A,,2 A,,G,, A,,2 F,,2 | %69
 E,,2 C,,2 z2 A,,2 | B,,2 A,,G,, A,,2 F,,2 | B,,2 A,,2 G,,2 F,,2 | C,,2 C,2 B,,2 G,,2 | %73
 C,2 B,,2 A,,2 G,,2 | D,,2 D,2 B,,2 G,,2 | C,2 D,2 _E,2 C,2 | D,2 C,2 B,,2 G,,2 | %77
 D,2 C,2 D,2 D,,2 | G,,2 G,2 E,2 C,2 | z2 F,,2 F,2 F,,2 | z2 F,,G,, A,,2 F,,2 | B,,2 C,2 D,2 B,,2 | %82
 C,2 B,,2 A,,2 F,,2 | C,2 B,,2 C,2 C,,2 | D,,4 G,,4 | C,4 F,,4 | C,4 C,,4 | F,,8 |] %88

